img/icon-mastodon.svg

<svg width="16" height="16" viewBox="0 0 16 16" fill="none" xmlns="http://www.w3.org/2000/svg">
<g clip-path="url(#clip0_227_23)">
<path d="M15.4853 3.542C15.252 1.82333 13.7407 0.468667 11.9493 0.206C11.6467 0.161333 10.5013 0 7.8487 0H7.8287C5.17537 0 4.60537 0.161333 4.30337 0.206C2.56137 0.461333 0.970703 1.67867 0.584703 3.418C0.400037 4.27467 0.380037 5.22467 0.414037 6.09533C0.46337 7.34467 0.472703 8.592 0.58737 9.836C0.666037 10.6627 0.804037 11.4827 1.0007 12.2893C1.36737 13.7807 2.85203 15.0213 4.30737 15.5273C5.8647 16.0553 7.54003 16.1427 9.1447 15.7807C9.32137 15.74 9.49603 15.6927 9.6687 15.6387C10.0587 15.516 10.5153 15.3787 10.8513 15.1367C10.8559 15.1333 10.8596 15.129 10.8622 15.1241C10.8649 15.1191 10.8664 15.1136 10.8667 15.108V13.902C10.8667 13.8967 10.8655 13.8915 10.8632 13.8868C10.8609 13.8821 10.8575 13.8779 10.8533 13.8747C10.8491 13.8713 10.8441 13.8689 10.8388 13.8677C10.8335 13.8666 10.828 13.8667 10.8227 13.868C9.79406 14.1114 8.74042 14.2333 7.68337 14.2313C5.86337 14.2313 5.3747 13.3753 5.23403 13.0193C5.12148 12.7116 5.04997 12.3904 5.02137 12.064C5.02109 12.0585 5.02212 12.053 5.02436 12.0479C5.0266 12.0429 5.03 12.0384 5.03428 12.0349C5.03856 12.0314 5.04361 12.0289 5.049 12.0277C5.0544 12.0265 5.06001 12.0266 5.06537 12.028C6.0767 12.27 7.11337 12.392 8.15337 12.392C8.40403 12.392 8.65337 12.392 8.90337 12.3853C9.95003 12.356 11.0527 12.3027 12.082 12.104C12.1073 12.0987 12.1333 12.094 12.1553 12.088C13.7787 11.7787 15.324 10.808 15.4813 8.352C15.4867 8.25533 15.5013 7.33867 15.5013 7.23867C15.5027 6.89733 15.6127 4.81867 15.4853 3.542Z" fill="#6364FF"/>
<path d="M11.2798 9.67208H12.9872L12.9892 5.40141C12.9892 4.52808 12.7645 3.83475 12.3145 3.32141C11.8498 2.80875 11.2412 2.54541 10.4878 2.54541C9.61448 2.54541 8.95448 2.87808 8.51448 3.54408L8.08915 4.25075L7.66382 3.54408C7.22382 2.87875 6.56315 2.54541 5.68915 2.54541C4.93448 2.54541 4.32648 2.80808 3.86248 3.32141C3.41315 3.83475 3.18848 4.52808 3.18848 5.40141V9.67208H4.89315V5.52675C4.89448 4.65408 5.26515 4.20875 6.00648 4.20875C6.82715 4.20875 7.23848 4.73541 7.23848 5.77541V8.04475H8.93582V5.77608C8.93582 4.73608 9.34648 4.20941 10.1665 4.20941C10.9132 4.20941 11.2798 4.65408 11.2798 5.52675V9.67208Z" fill="white"/>
</g>
<defs>
<clipPath id="clip0_227_23">
<rect width="16" height="16" fill="white"/>
</clipPath>
</defs>
</svg>

<svg width="16" height="16" fill="none" xmlns="http://www.w3.org/2000/svg"><g clip-path="url(#clip0_227_23)"><path d="M15.485 3.542C15.252 1.823 13.741.469 11.95.206 11.647.161 10.501 0 7.85 0h-.02C5.175 0 4.605.161 4.303.206 2.561.461.971 1.679.585 3.418.4 4.275.38 5.225.414 6.095c.05 1.25.059 2.497.173 3.741.079.827.217 1.647.414 2.453.366 1.492 1.851 2.732 3.306 3.238a8.943 8.943 0 0 0 4.838.254 7.08 7.08 0 0 0 .524-.142c.39-.123.846-.26 1.182-.502a.038.038 0 0 0 .016-.029v-1.206a.035.035 0 0 0-.014-.027.036.036 0 0 0-.014-.007.036.036 0 0 0-.016 0 13.522 13.522 0 0 1-3.14.363c-1.82 0-2.308-.856-2.449-1.212a3.728 3.728 0 0 1-.213-.955.036.036 0 0 1 .028-.036.035.035 0 0 1 .016 0 13.27 13.27 0 0 0 3.088.364c.251 0 .5 0 .75-.007 1.047-.029 2.15-.082 3.179-.281.025-.005.051-.01.073-.016 1.624-.31 3.169-1.28 3.326-3.736.006-.097.02-1.013.02-1.113.002-.342.112-2.42-.016-3.697z" fill="#6364FF"/><path d="M11.28 9.672h1.707l.002-4.27c0-.874-.225-1.567-.675-2.08-.464-.513-1.073-.777-1.826-.777-.874 0-1.534.333-1.974 1l-.425.706-.425-.707c-.44-.665-1.1-.999-1.975-.999-.755 0-1.363.263-1.827.776-.449.514-.674 1.207-.674 2.08v4.271h1.705V5.527c.001-.873.372-1.318 1.113-1.318.821 0 1.232.526 1.232 1.566v2.27h1.698V5.776c0-1.04.41-1.567 1.23-1.567.747 0 1.114.445 1.114 1.318v4.145z" fill="#fff"/></g><defs><clipPath id="clip0_227_23"><path fill="#fff" d="M0 0H16V16H0z"/></clipPath></defs></svg>
